public/assets/standards/soft/icon-bg.svg

<svg width="48" height="49" viewBox="0 0 48 49" fill="none" xmlns="http://www.w3.org/2000/svg">
    <path opacity="0.2"
        d="M31.7643 2.09846C29.7197 1.24217 27.5372 0.762033 25.322 0.681152C22.3827 0.697258 19.5078 1.88909 16.794 3.13729C11.8011 5.41626 7.88743 8.9837 3.76434 12.6156C0.454591 15.579 -0.0930071 21.6429 0.0116808 25.774C0.0116808 26.2733 0.0116811 26.7806 0.0599986 27.2799C0.0876649 28.8189 0.359478 30.3438 0.86529 31.7976C1.70279 34.1007 3.70797 36.0495 5.22997 37.942C6.75486 39.9734 8.60191 41.7415 10.6979 43.1764C13.2024 44.8433 16.7859 47.694 19.8702 47.9517C23.7678 48.2819 26.7393 48.443 30.4839 47.2753C34.462 46.0351 38.8267 44.2232 41.7097 41.0504C43.2156 39.3834 44.198 37.0239 45.3174 35.0671C47.5068 31.4029 48.395 27.1069 47.8379 22.875C47.2501 18.3331 45.4704 14.8221 43.586 10.7956C41.154 5.56927 36.8779 4.02311 31.7643 2.09846Z"
        fill="#AECC53" />
</svg>

<svg xmlns="http://www.w3.org/2000/svg" width="48" height="49" fill="none" viewBox="0 0 48 49"><path fill="#aecc53" d="M31.764 2.098A18.4 18.4 0 0 0 25.322.681c-2.94.016-5.814 1.208-8.528 2.456-4.993 2.28-8.907 5.847-13.03 9.479C.454 15.579-.093 21.643.012 25.774c0 .5 0 1.007.048 1.506.028 1.539.3 3.064.805 4.518.838 2.303 2.843 4.252 4.365 6.144a23.3 23.3 0 0 0 5.468 5.234c2.504 1.667 6.088 4.518 9.172 4.776 3.898.33 6.87.491 10.614-.677 3.978-1.24 8.343-3.052 11.226-6.225 1.506-1.667 2.488-4.026 3.607-5.983a18.95 18.95 0 0 0 2.52-12.192c-.587-4.542-2.367-8.053-4.251-12.08-2.432-5.226-6.708-6.772-11.822-8.697" opacity=".2"/></svg>
